assets/images/ico_email2.svg

<svg width="24" height="24" viewBox="0 0 24 24" fill="none" xmlns="http://www.w3.org/2000/svg">
<path d="M19.3333 3H4.66667C2.64413 3 1 4.73323 1 6.86364V16.1364C1 18.2668 2.64413 20 4.66667 20H19.3333C21.3559 20 23 18.2668 23 16.1364V6.86364C23 4.73323 21.3559 3 19.3333 3ZM21.5333 16.1364C21.5333 16.4934 21.4505 16.828 21.3126 17.1293L15.7363 11.255L21.2935 5.88691C21.2994 5.88073 21.3031 5.87068 21.3089 5.86604C21.4468 6.16973 21.5333 6.50509 21.5333 6.86364V16.1364ZM19.3333 4.54545C19.6714 4.54545 19.9897 4.63277 20.2742 4.77727L13.6654 11.1608C12.7619 12.0347 11.2351 12.0347 10.3317 11.1608L3.72213 4.77727C4.01253 4.63277 4.32493 4.54545 4.663 4.54545H19.3333ZM2.46667 6.86364C2.46667 6.50509 2.551 6.16973 2.69033 5.86604C2.6962 5.87377 2.70133 5.88227 2.70573 5.88691L8.26293 11.255L2.68667 17.1293C2.5488 16.8272 2.46593 16.4934 2.46593 16.1364L2.46667 6.86364ZM4.66667 18.4545C4.32713 18.4545 4.01033 18.3672 3.72433 18.222L9.3446 12.2998C10.0765 13.0068 11.0393 13.3607 12 13.3607C12.9607 13.3607 13.9235 13.0068 14.6554 12.2998L20.2757 18.222C19.9875 18.3672 19.6714 18.4545 19.3333 18.4545H4.66667Z" fill="#023869"/>
</svg>

<svg width="24" height="24" fill="none" xmlns="http://www.w3.org/2000/svg"><path d="M19.333 3H4.667C2.644 3 1 4.733 1 6.864v9.272C1 18.266 2.644 20 4.667 20h14.666C21.356 20 23 18.267 23 16.136V6.864C23 4.734 21.356 3 19.333 3zm2.2 13.136c0 .357-.082.692-.22.993l-5.577-5.874 5.558-5.368c.005-.006.01-.016.015-.021.138.304.224.64.224.998v9.272zm-2.2-11.59c.338 0 .657.087.941.231l-6.609 6.384c-.903.874-2.43.874-3.333 0l-6.61-6.384c.29-.144.603-.232.941-.232h14.67zM2.467 6.863c0-.359.084-.694.223-.998.006.008.011.016.016.02l5.557 5.369-5.576 5.874a2.38 2.38 0 01-.221-.993V6.864zm2.2 11.59a2.07 2.07 0 01-.943-.232l5.62-5.922A3.815 3.815 0 0012 13.36c.96 0 1.924-.353 2.655-1.06l5.62 5.922a2.082 2.082 0 01-.942.232H4.667z" fill="#023869"/></svg>
